!!!!SEGMENT: pl-sa--172-a-v-2--004_szczurowski-jacek--msza-swiateczna-laudamus.krn
!!!id: 17xx:264
!!!COM: Szczurowski, Jacek
!!!COM-rism: pe30017605
!!!CDT: 1716/08/15-~1733
!!!CNT: Polish
!!!OTL: Msza świąteczna - Laudamus
!!!PDT:
!!!SMS-siglum: PL-SA
!!!SMS-shelfmark: 172/A V 2
!!!NIFC-rismID:
!!!URL-scan: http://bc.bdsandomierz.pl/dlibra/publication/1506/edition/1474/content
!!!ONB-nifc: UWAGA: części Mszy: Kyrie, Christe, Et in terra, Laudamus, Qui tollis, Quoniam, Patrem, Et Incarnatus, Ressurexit, Sanctus, Osanna, Benedictus, Agnus Dei
**kern	**fba	**dynam	**kern	**dynam	**kern	**dynam	**kern	**kern	**text	**kern	**kern
*part7	*	*part7	*part6	*part6	*part5	*part5	*part4	*part3	*part3	*part2	*part1
*	*	*	*group3	*	*group3	*	*group2	*group2	*	*group1	*group1
*staff7	*	*	*staff6	*	*staff5	*	*staff4	*staff3	*staff3	*staff2	*staff1
*I"Organo:	*	*	*I"Violino 2:d:	*	*I"Violino Primo	*	*I"Soprano 2:do:	*I"Soprano Primo.	*	*I"Corno 2.do Ex D:	*I"Corno Primo Ex D:
*I'Org	*	*	*I'V-no 2	*	*I'V-no 1	*	*I'S 2	*I'S 1	*	*I'C 2 in D	*I'C 1 in D
*clefF4	*	*	*clefG2	*	*clefG2	*	*clefC1	*clefC1	*	*clefG2	*clefG2
*	*	*	*	*	*	*	*	*	*	*ITrd6c10	*ITrd6c10
*k[f#]	*	*	*k[f#]	*	*k[f#]	*	*k[f#]	*k[f#]	*	*k[f#]	*k[f#]
*M2/4	*	*	*M2/4	*	*M2/4	*	*M2/4	*M2/4	*	*M2/4	*M2/4
!LO:TX:a:t=andante	!	!	!LO:TX:a:t=andante	!	!	!	!LO:TX:a:t=Tacet	!LO:TX:a:t=andante	!	!LO:TX:a:t=Tacet	!LO:TX:a:t=Tacet
!	!	!	!	!	!	!	!	!LO:TX:a:t=P:problem:pojedyncze ósemki i szesnastki mają chorągiewki z lewej strony kreski	!	!	!
8r	.	.	8r	.	8dd\	.	8ryy	8r	.	8ryy	8ryy
=1	=1	=1	=1	=1	=1	=1	=1	=1	=1	=1	=1
!	!	!	!	!	!	!	!	!LO:TX:a:t=12	!	!	!
!	!	!	!	!	!	!	!	!LO:N:vis=00	!	!	!
8G\L	.	.	8b/L	.	4gg\	.	2ryy	0r	.	2ryy	2ryy
8G\	.	.	8b/	.	.	.	.	.	.	.	.
*	*	*	*	*	*Xtuplet	*	*	*	*	*	*
!	!	!	!	!	!LO:N:vis=10	!	!	!	!	!	!
8G\	.	.	8b/	.	40gg\LLL	.	.	.	.	.	.
.	.	.	.	.	40ff#\	.	.	.	.	.	.
.	.	.	.	.	40ee\	.	.	.	.	.	.
.	.	.	.	.	40dd\	.	.	.	.	.	.
.	.	.	.	.	40cc\	.	.	.	.	.	.
8G\J	.	.	8b/J	.	40b\	.	.	.	.	.	.
.	.	.	.	.	40a\	.	.	.	.	.	.
.	.	.	.	.	40g\	.	.	.	.	.	.
.	.	.	.	.	40f#\	.	.	.	.	.	.
.	.	.	.	.	40b\JJJ	.	.	.	.	.	.
=2	=2	=2	=2	=2	=2	=2	=2	=2	=2	=2	=2
8G\L	2	.	(16a/LL	.	(16cc\LL	.	2ryy	.	.	2ryy	2ryy
.	.	.	16g/J)	.	16b\J)	.	.	.	.	.	.
8G\	3	.	8g/J	.	8b\J	.	.	.	.	.	.
8G\	.	.	8r	.	8r	.	.	.	.	.	.
8G\J	.	.	8b/	.	8dd\	.	.	.	.	.	.
!	!	!	!	!	!LO:LB:g=original	!	!	!	!	!	!
=3	=3	=3	=3	=3	=3	=3	=3	=3	=3	=3	=3
8G\L	.	.	8b/L	.	[4gg\	.	2ryy	.	.	2ryy	2ryy
8G\	.	.	8b/	.	.	.	.	.	.	.	.
!	!	!	!	!	!LO:N:vis=10	!	!	!	!	!	!
8G\	.	.	8b/	.	40gg\LLL]	.	.	.	.	.	.
.	.	.	.	.	40ff#\	.	.	.	.	.	.
.	.	.	.	.	(40ee\	.	.	.	.	.	.
.	.	.	.	.	40dd\	.	.	.	.	.	.
.	.	.	.	.	40cc\	.	.	.	.	.	.
8G\J	.	.	8b/J	.	40b\	.	.	.	.	.	.
.	.	.	.	.	40a\	.	.	.	.	.	.
.	.	.	.	.	40g\	.	.	.	.	.	.
.	.	.	.	.	40b\	.	.	.	.	.	.
.	.	.	.	.	40dd\JJJ)	.	.	.	.	.	.
=4	=4	=4	=4	=4	=4	=4	=4	=4	=4	=4	=4
8G\L	4	.	(16cc\LL	.	(16ee\LL	.	2ryy	.	.	2ryy	2ryy
.	.	.	16b\J)	.	16dd\J)	.	.	.	.	.	.
8G\	3	.	8b\J	.	8dd\J	.	.	.	.	.	.
8G\	.	.	8r	.	8r	.	.	.	.	.	.
8G\J	.	.	8b/	.	8dd\	.	.	.	.	.	.
=5	=5	=5	=5	=5	=5	=5	=5	=5	=5	=5	=5
!	!	!	!	!	!	!	!	!LO:N:vis=00	!	!	!
8G\L	6 7	.	8cc\L	.	(32ee\KLL	.	2ryy	0r	.	2ryy	2ryy
.	.	.	.	.	16.gg\JJ)	.	.	.	.	.	.
8G\	.	.	8cc\	.	(32ccc\KLL	.	.	.	.	.	.
.	.	.	.	.	16.aa\JJ)	.	.	.	.	.	.
8G\	.	.	8cc\	.	(32gg\KLL	.	.	.	.	.	.
.	.	.	.	.	16.ee\JJ)	.	.	.	.	.	.
8G\J	.	.	8cc\J	.	(32ee\KLL	.	.	.	.	.	.
.	.	.	.	.	16.cc\JJ)	.	.	.	.	.	.
=6	=6	=6	=6	=6	=6	=6	=6	=6	=6	=6	=6
8G\L	5 3	.	8b/L	.	(32b\KLL	.	2ryy	.	.	2ryy	2ryy
.	.	.	.	.	16.dd\JJ)	.	.	.	.	.	.
8G\	.	.	8b/	.	(32gg\KLL	.	.	.	.	.	.
.	.	.	.	.	16.bb\JJ)	.	.	.	.	.	.
8G\	.	.	8b/	.	(32gg\KLL	.	.	.	.	.	.
.	.	.	.	.	16.dd\JJ)	.	.	.	.	.	.
8G\J	.	.	8b/J	.	(32dd\KLL	.	.	.	.	.	.
.	.	.	.	.	16.b\JJ)	.	.	.	.	.	.
=7	=7	=7	=7	=7	=7	=7	=7	=7	=7	=7	=7
8D/L	7	.	8f#/L	.	(32cc\KLL	.	2ryy	.	.	2ryy	2ryy
.	.	.	.	.	16.a\JJ)	.	.	.	.	.	.
8D/	.	.	8a/J	.	(32ff#\KLL	.	.	.	.	.	.
.	.	.	.	.	16.aa\JJ)	.	.	.	.	.	.
8D/	.	.	8b/L	.	(32gg\KLL	.	.	.	.	.	.
.	.	.	.	.	16.dd\JJ)	.	.	.	.	.	.
!	!	!	!	!	!LO:N:vis=16	!	!	!	!	!	!
8D/J	4	.	16a/L	.	(32ff#\LLL	.	.	.	.	.	.
!	!	!	!	!	!LO:N:vis=16	!	!	!	!	!	!
.	.	.	.	.	32aa\	.	.	.	.	.	.
!	!	!	!	!	!LO:N:vis=16	!	!	!	!	!	!
.	.	.	16b/JJ	.	32gg\	.	.	.	.	.	.
!	!	!	!	!	!LO:N:vis=16	!	!	!	!	!	!
.	.	.	.	.	32b\JJJ)	.	.	.	.	.	.
=8	=8	=8	=8	=8	=8	=8	=8	=8	=8	=8	=8
8D/L	.	.	8g/L	.	8b/L	.	2ryy	.	.	2ryy	2ryy
8D/	.	.	8f#/J	.	8a/J	.	.	.	.	.	.
8D/	4	.	8r	.	8r	.	.	.	.	.	.
8D/J	5	.	8a/	.	8cc\	.	.	.	.	.	.
!	!	!	!LO:LB:g=original	!	!LO:LB:g=original	!	!	!	!	!	!
=9	=9	=9	=9	=9	=9	=9	=9	=9	=9	=9	=9
!	!	!	!	!	!	!	!	!LO:N:vis=00	!	!	!
8G\L	.	.	8g/L	.	(32b/KLL	.	2ryy	0r	.	2ryy	2ryy
.	.	.	.	.	16.g/JJ)	.	.	.	.	.	.
8G\	.	.	8cc/	.	(32gg\KLL	.	.	.	.	.	.
.	.	.	.	.	16.ee\JJ)	.	.	.	.	.	.
8G\	.	.	8b/	.	(32dd\KLL	.	.	.	.	.	.
.	.	.	.	.	16.b\JJ)	.	.	.	.	.	.
8D\J	7	.	8a/J	.	(32cc\KLL	.	.	.	.	.	.
.	.	.	.	.	16.a\JJ)	.	.	.	.	.	.
=10	=10	=10	=10	=10	=10	=10	=10	=10	=10	=10	=10
8G\L	.	.	8g/L	.	(32b/KLL	.	2ryy	.	.	2ryy	2ryy
.	.	.	.	.	16.g/JJ)	.	.	.	.	.	.
8G\	.	.	8cc/	.	(32gg\KLL	.	.	.	.	.	.
.	.	.	.	.	16.ee\JJ)	.	.	.	.	.	.
8G\	.	.	8b/	.	(32dd\KLL	.	.	.	.	.	.
.	.	.	.	.	16.b\JJ)	.	.	.	.	.	.
8D\J	7	.	8a/J	.	(32cc\KLL	.	.	.	.	.	.
.	.	.	.	.	16.a\JJ)	.	.	.	.	.	.
=11	=11	=11	=11	=11	=11	=11	=11	=11	=11	=11	=11
.	.	.	.	.	8qqcc/	.	.	.	.	.	.
8G\L	.	.	4b/	.	4b/	.	2ryy	.	.	2ryy	2ryy
8G\	.	.	.	.	.	.	.	.	.	.	.
8C\	6 5	.	8e/L	.	16gg\LL	.	.	.	.	.	.
.	.	.	.	.	16ee\	.	.	.	.	.	.
8C\J	.	.	8e/J	.	16cc\	.	.	.	.	.	.
.	.	.	.	.	16a\JJ	.	.	.	.	.	.
=12	=12	=12	=12	=12	=12	=12	=12	=12	=12	=12	=12
8D/L	.	.	8d/L	.	4g/	.	2ryy	.	.	2ryy	2ryy
8D/	4	.	8d/	.	.	.	.	.	.	.	.
8DD/	3	.	8f#/	.	4a/	.	.	.	.	.	.
!	!	!	!LO:TX:a:t=vi-	!	!	!	!	!	!	!	!
8DD/J	.	.	8f#/J	.	.	.	.	.	.	.	.
!LO:LB:g=original	!	!	!	!	!	!	!	!	!	!	!
=13	=13	=13	=13	=13	=13	=13	=13	=13	=13	=13	=13
!	!	!	!LO:TX:a:t=P:problem:"-de" na następnej stronie (0023)	!	!	!	!	!	!	!	!
!	!	!	!LO:TX:a:t=-de	!	!	!	!	!	!	!	!
8G\L	.	.	4g/	.	4g/	.	2ryy	4r	.	2ryy	2ryy
8D\	.	.	.	.	.	.	.	.	.	.	.
8GG\J	.	.	4r	.	8r	.	.	8r	.	.	.
8r	.	.	.	.	8dd\	.	.	8dd\	Lau-	.	.
=14	=14	=14	=14	=14	=14	=14	=14	=14	=14	=14	=14
!	!	!LO:DY:a	!	!	!	!LO:DY:a	!	!	!	!	!
8G\L	.	p	8b/L	.	8.gg\L	p	2ryy	8.gg\L	-da-	2ryy	2ryy
8G\	.	.	8b/	.	.	.	.	.	.	.	.
.	.	.	.	.	(32ff#\LL	.	.	32ff#\LL	.	.	.
.	.	.	.	.	32ee\JJJ)	.	.	32ee\JJJ	.	.	.
8G\	.	.	8b/	.	8dd\L	.	.	8dd\L	.	.	.
8D\J	7	.	8a/J	.	8cc\J	.	.	8cc\J	.	.	.
!	!	!	!	!	!	!	!	!LO:LB:g=original	!	!	!
=15	=15	=15	=15	=15	=15	=15	=15	=15	=15	=15	=15
!LO:TX:a:t=P:problem:mixed beam	!	!	!	!	!	!	!	!	!	!	!
8G\L	2	.	8a/L	.	8cc\L	.	2ryy	8cc\	.	2ryy	2ryy
8GG/	3	.	8g/J	.	8b\J	.	.	16b\	-mus	.	.
.	.	.	.	.	.	.	.	16b\	te	.	.
8GG/J	.	.	8r	.	8r	.	.	8r	.	.	.
8r	.	.	8b/	.	8dd\	.	.	8dd\	be-	.	.
=16	=16	=16	=16	=16	=16	=16	=16	=16	=16	=16	=16
!LO:TX:a:t=P:problem:takt poprawiony lub przebitka z drugiej strony rkp.	!	!	!	!	!	!	!	!	!	!	!
8G\L	.	.	8b/L	.	8.gg\L	.	2ryy	8.gg\L	.	2ryy	2ryy
8G\	.	.	8b/	.	.	.	.	.	.	.	.
.	.	.	.	.	(32ff#\LL	.	.	32ff#\LL	.	.	.
.	.	.	.	.	32ee\JJJ)	.	.	32ee\JJJ	.	.	.
8G\	.	.	8b/	.	8dd\L	.	.	8dd\	.	.	.
8G\J	4	.	8cc/J	.	8ee\J	.	.	8ee\	-ne-	.	.
=17	=17	=17	=17	=17	=17	=17	=17	=17	=17	=17	=17
8G\L	.	.	8cc\L	.	8ee\L	.	2ryy	16ee\	-di-	2ryy	2ryy
.	.	.	.	.	.	.	.	32dd\	-ci-	.	.
.	.	.	.	.	.	.	.	32dd\	-mus	.	.
8G\	.	.	8b\J	.	8dd\J	.	.	8dd\	te	.	.
8G\	.	.	8r	.	8r	.	.	8r	.	.	.
8G\J	.	.	8gg\	.	16.gg\LL	.	.	8gg\	a-	.	.
.	.	.	.	.	32bb\JJk	.	.	.	.	.	.
!	!	!	!	!	!LO:LB:g=original	!	!	!	!	!	!
=18	=18	=18	=18	=18	=18	=18	=18	=18	=18	=18	=18
8D/L	.	.	16.ff#\LL	.	16.aa\LL	.	2ryy	16.aa\LL	-do-	2ryy	2ryy
.	.	.	32ee\K	.	32gg\K	.	.	32gg\K	.	.	.
8D/	.	.	16.dd\	.	16.ff#\	.	.	16.ff#\	.	.	.
.	.	.	32cc\JJk	.	32ee\JJk	.	.	32ee\JJk	.	.	.
8D/	.	.	16.b/LL	.	16.dd\LL	.	.	16.dd\LL	-ra-	.	.
.	.	.	32a/K	.	32cc\K	.	.	32cc\K	.	.	.
8D/J	.	.	16.g/	.	16.b\	.	.	16.b\	.	.	.
.	.	.	32a/JJk	.	32cc\JJk	.	.	32cc\JJk	.	.	.
=19	=19	=19	=19	=19	=19	=19	=19	=19	=19	=19	=19
8GG/L	2	.	8a/L	.	8cc\L	.	2ryy	8cc\	.	2ryy	2ryy
8GG/	3	.	8g/J	.	8b\J	.	.	16b\	-mus	.	.
.	.	.	.	.	.	.	.	16b\	te	.	.
8GG/	.	.	8r	.	8r	.	.	8r	.	.	.
!	!	!	!	!	!	!	!	!LO:LB:g=original	!	!	!
8GG/J	.	.	8b/	.	16.gg\LL	.	.	8gg\	glo-	.	.
.	.	.	.	.	32bb\JJk	.	.	.	.	.	.
=20	=20	=20	=20	=20	=20	=20	=20	=20	=20	=20	=20
8D/L	.	.	8cc\L	.	16.aa\LL	.	2ryy	16.aa\LL	-ri-	2ryy	2ryy
.	.	.	.	.	32gg\K	.	.	32gg\JJk	.	.	.
8D/	.	.	8a\J	.	16.ff#\	.	.	16.ff#\LL	-fi-	.	.
.	.	.	.	.	32ee\JJk	.	.	32ee\JJk	.	.	.
8D/	.	.	16.b/LL	.	16.dd\LL	.	.	16.dd\LL	-ca-	.	.
.	.	.	32a/K	.	32cc\K	.	.	32cc\K	.	.	.
8D/J	.	.	16.g/	.	16.b\	.	.	16.b\	.	.	.
.	.	.	32a/JJk	.	32cc\JJk	.	.	32cc\JJk	.	.	.
=21	=21	=21	=21	=21	=21	=21	=21	=21	=21	=21	=21
8G\L	2	.	8a/L	.	8cc\L	.	2ryy	8cc\	.	2ryy	2ryy
8G\	3	.	8g/J	.	8b\J	.	.	16b\	-mus	.	.
.	.	.	.	.	.	.	.	16b\	te	.	.
8G\	.	.	8r	.	8r	.	.	8r	.	.	.
8G\J	.	.	8b/	.	8dd\	.	.	8dd\	glo-	.	.
=22	=22	=22	=22	=22	=22	=22	=22	=22	=22	=22	=22
8G\L	2	.	8cc\L	.	8ee\L	.	2ryy	16ee\LL	.	2ryy	2ryy
.	.	.	.	.	.	.	.	16gg\	.	.	.
8G\	3	.	8cc\	.	8ee\	.	.	16ee\	.	.	.
.	.	.	.	.	.	.	.	16cc\JJ	.	.	.
8G\	.	.	8b\	.	8dd\	.	.	16dd\LL	-ri-	.	.
.	.	.	.	.	.	.	.	16gg\	.	.	.
8G\J	.	.	8b\J	.	8dd\J	.	.	16dd\	-fi-	.	.
.	.	.	.	.	.	.	.	16b\JJ	.	.	.
=23	=23	=23	=23	=23	=23	=23	=23	=23	=23	=23	=23
8D\L	7	.	8a/L	.	8cc\L	.	2ryy	16cc\LL	-ca-	2ryy	2ryy
.	.	.	.	.	.	.	.	16a\	.	.	.
8G\	.	.	8b/J	.	8dd\J	.	.	16dd\	.	.	.
.	.	.	.	.	.	.	.	16gg\JJ	.	.	.
8D\	.	.	8cc/L	.	8ff#\L	.	.	16ff#\LL	.	.	.
.	.	.	.	.	.	.	.	16aa\	.	.	.
8D\J	4	.	16b/L	.	16dd\L	.	.	16gg\	.	.	.
.	.	.	16a/JJ	.	16b\JJ	.	.	16b\JJ	.	.	.
=24	=24	=24	=24	=24	=24	=24	=24	=24	=24	=24	=24
8D/L	4	.	16g/LL	.	16b/LL	.	2ryy	8b\	.	2ryy	2ryy
.	.	.	16f#/J	.	16a/J	.	.	.	.	.	.
8D/	3	.	8f#/J	.	8a/J	.	.	16a\	-mus	.	.
.	.	.	.	.	.	.	.	16a\	te	.	.
8D/	.	.	8r	.	8r	.	.	8r	.	.	.
!	!	!	!	!	!	!	!	!LO:LB:g=original	!	!	!
8D/J	4	.	8b/	.	8dd\	.	.	8dd\	glo-	.	.
=25	=25	=25	=25	=25	=25	=25	=25	=25	=25	=25	=25
8G\L	.	.	8cc\L	.	8ee\L	.	2ryy	16ee\LL	.	2ryy	2ryy
.	.	.	.	.	.	.	.	16gg\	.	.	.
8G\	.	.	8cc\	.	8ee\	.	.	16ee\	.	.	.
.	.	.	.	.	.	.	.	16cc\JJ	.	.	.
8G\	.	.	8b\	.	8dd\	.	.	16dd\LL	-ri-	.	.
.	.	.	.	.	.	.	.	16gg\	.	.	.
!	!	!	!LO:TX:b:t=re-	!	!	!	!	!	!	!	!
8G\J	.	.	8b\J	.	8dd\J	.	.	16dd\	-fi-	.	.
.	.	.	.	.	.	.	.	16b\JJ	.	.	.
!LO:LB:g=original	!	!	!LO:LB:g=original	!	!	!	!	!	!	!	!
=26	=26	=26	=26	=26	=26	=26	=26	=26	=26	=26	=26
!	!	!	!LO:TX:b:t=-tro	!	!	!	!	!	!	!	!
8D\L	7	.	8a/L	.	8cc\L	.	2ryy	16cc\LL	-ca-	2ryy	2ryy
.	.	.	.	.	.	.	.	16a\	.	.	.
8G\	.	.	8b/J	.	8dd\J	.	.	16dd\	.	.	.
.	.	.	.	.	.	.	.	16gg\JJ	.	.	.
8D\	.	.	8cc/L	.	8ff#\L	.	.	16ff#\LL	.	.	.
.	.	.	.	.	.	.	.	16aa\	.	.	.
8D\J	4	.	16b/L	.	16dd\L	.	.	16gg\	.	.	.
.	.	.	16g/JJ	.	16b\JJ	.	.	16b\JJ	.	.	.
!	!	!	!	!	!LO:LB:g=original	!	!	!	!	!	!
=27	=27	=27	=27	=27	=27	=27	=27	=27	=27	=27	=27
8D/L	4	.	16g/LL	.	16b/LL	.	2ryy	8b\	.	2ryy	2ryy
.	3	.	16f#/J	.	16a/J	.	.	.	.	.	.
8D/	.	.	8f#/J	.	8a/J	.	.	16a\	-mus	.	.
.	.	.	.	.	.	.	.	16a\	te	.	.
8D/	.	.	8r	.	8r	.	.	8r	.	.	.
8D/J	.	.	8b/	.	8cc\	.	.	8cc\	glo-	.	.
=28	=28	=28	=28	=28	=28	=28	=28	=28	=28	=28	=28
!LO:TX:a:t=P:problem:trzy nadmiarowe takty w vl II	!	!	!LO:TX:a:t=P:problem:trzy nadmiarowe takty	!	!LO:TX:a:t=P:problem:trzy nadmiarowe takty w vl II	!	!LO:TX:a:t=P:problem:trzy nadmiarowe takty w vl II	!LO:TX:a:t=P:problem:trzy nadmiarowe takty w vl II	!	!LO:TX:a:t=P:problem:trzy nadmiarowe takty w vl II	!LO:TX:a:t=P:problem:trzy nadmiarowe takty w vl II
2ryy	.	.	8cc\L	.	2ryy	.	2ryy	2ryy	.	2ryy	2ryy
.	.	.	8cc\	.	.	.	.	.	.	.	.
.	.	.	8b\	.	.	.	.	.	.	.	.
.	.	.	8b\J	.	.	.	.	.	.	.	.
=29	=29	=29	=29	=29	=29	=29	=29	=29	=29	=29	=29
2ryy	.	.	8a/L	.	2ryy	.	2ryy	2ryy	.	2ryy	2ryy
.	.	.	8b/J	.	.	.	.	.	.	.	.
.	.	.	8cc/L	.	.	.	.	.	.	.	.
.	.	.	16b/L	.	.	.	.	.	.	.	.
.	.	.	16g/JJ	.	.	.	.	.	.	.	.
=30	=30	=30	=30	=30	=30	=30	=30	=30	=30	=30	=30
2ryy	.	.	16g/LL	.	2ryy	.	2ryy	2ryy	.	2ryy	2ryy
.	.	.	16f#/J	.	.	.	.	.	.	.	.
.	.	.	8f#/J	.	.	.	.	.	.	.	.
.	.	.	8r	.	.	.	.	.	.	.	.
.	.	.	8a/	.	.	.	.	.	.	.	.
=31	=31	=31	=31	=31	=31	=31	=31	=31	=31	=31	=31
8G\L	.	.	8g/L	.	(32b/KLL	.	2ryy	8b\L	.	2ryy	2ryy
.	.	.	.	.	16.g/JJ)	.	.	.	.	.	.
8G\	.	.	8cc/	.	(32gg\KLL	.	.	8gg\J	.	.	.
.	.	.	.	.	16.ee\JJ)	.	.	.	.	.	.
8G\	.	.	8b/	.	(32dd\KLL	.	.	8dd\	-ri-	.	.
.	.	.	.	.	16.b\JJ)	.	.	.	.	.	.
8D\J	7	.	8a/J	.	(32cc\KLL	.	.	8cc\	-fi-	.	.
.	.	.	.	.	16.a\JJ)	.	.	.	.	.	.
=32	=32	=32	=32	=32	=32	=32	=32	=32	=32	=32	=32
8G\L	.	.	8g/L	.	(32b/KLL	.	2ryy	8b\L	-ca-	2ryy	2ryy
.	.	.	.	.	16.g/JJ)	.	.	.	.	.	.
8G\	.	.	8cc/	.	(32gg\KLL	.	.	8gg\	.	.	.
.	.	.	.	.	16.ee\JJ)	.	.	.	.	.	.
8G\	.	.	8b/	.	(32dd\KLL	.	.	8dd\	.	.	.
.	.	.	.	.	16.b\JJ)	.	.	.	.	.	.
8D\J	7	.	8a/J	.	(32cc\KLL	.	.	8cc\J	.	.	.
.	.	.	.	.	16.a\JJ)	.	.	.	.	.	.
=33	=33	=33	=33	=33	=33	=33	=33	=33	=33	=33	=33
8G\L	.	.	8g/L	.	8b/L	.	2ryy	4b\	.	2ryy	2ryy
8G\	.	.	8g/	.	8b/J	.	.	.	.	.	.
8C\	6 5	.	8e/	.	16gg\LL	.	.	16gg\LL	.	.	.
.	.	.	.	.	16ee\	.	.	16ee\	.	.	.
8C\J	.	.	8e/J	.	16cc\	.	.	16cc\	.	.	.
.	.	.	.	.	16a\JJ	.	.	16a\JJ	.	.	.
!	!	!	!	!	!	!	!	!LO:LB:g=original	!	!	!
=34	=34	=34	=34	=34	=34	=34	=34	=34	=34	=34	=34
8D/L	4	.	8g/L	.	8b/L	.	2ryy	4g/	.	2ryy	2ryy
8D/	3	.	8g/	.	8b/	.	.	.	.	.	.
8DD/	.	.	8f#/	.	8a/	.	.	8.a\	.	.	.
8DD/J	.	.	8f#/J	.	8a/J	.	.	.	.	.	.
.	.	.	.	.	.	.	.	16a\	-mus	.	.
!	!	!	!LO:LB:g=original	!	!	!	!	!	!	!	!
=35	=35	=35	=35	=35	=35	=35	=35	=35	=35	=35	=35
8GG/L	.	.	4g/	.	4g/	.	2ryy	4g/	te	2ryy	2ryy
16GG/L	.	.	.	.	.	.	.	.	.	.	.
16AA/JJ	.	.	.	.	.	.	.	.	.	.	.
8BB/L	.	.	8r	.	8r	.	.	4r	.	.	.
!	!	!	!	!	!	!LO:DY:t=For	!	!	!	!	!
8GG/J	.	.	8b/	.	8dd\	f	.	.	.	.	.
=36	=36	=36	=36	=36	=36	=36	=36	=36	=36	=36	=36
!	!	!LO:DY:t=For	!	!LO:DY:t=For	!	!	!	!LO:TX:a:t=5	!	!	!
!	!	!	!	!	!	!	!	!LO:N:vis=00	!	!	!
8G\L	.	f	8cc\L	f	(32ee\KLL	.	2ryy	0r	.	2ryy	2ryy
.	.	.	.	.	16.gg\JJ)	.	.	.	.	.	.
8G\	.	.	8cc\	.	(32ccc\KLL	.	.	.	.	.	.
.	.	.	.	.	16.aa\JJ)	.	.	.	.	.	.
8G\	.	.	8cc\	.	(32gg\KLL	.	.	.	.	.	.
.	.	.	.	.	16.ee\JJ)	.	.	.	.	.	.
8G\J	.	.	8cc\J	.	(32ee\KLL	.	.	.	.	.	.
.	.	.	.	.	16.cc\JJ)	.	.	.	.	.	.
=37	=37	=37	=37	=37	=37	=37	=37	=37	=37	=37	=37
8G\L	3	.	8b\L	.	(32b\KLL	.	2ryy	.	.	2ryy	2ryy
.	.	.	.	.	16.dd\JJ)	.	.	.	.	.	.
8G\	.	.	8b\	.	(32gg\KLL	.	.	.	.	.	.
.	.	.	.	.	16.bb\JJ)	.	.	.	.	.	.
!	!	!	!	!	!LO:LB:g=original	!	!	!	!	!	!
8G\	.	.	8b\	.	(32gg\KLL	.	.	.	.	.	.
.	.	.	.	.	16.dd\JJ)	.	.	.	.	.	.
8G\J	.	.	8b\J	.	(32dd\KLL	.	.	.	.	.	.
.	.	.	.	.	16.b\JJ)	.	.	.	.	.	.
=38	=38	=38	=38	=38	=38	=38	=38	=38	=38	=38	=38
8D\L	.	.	8f#/L	.	(32cc\KLL	.	2ryy	.	.	2ryy	2ryy
.	.	.	.	.	16.a\JJ)	.	.	.	.	.	.
8D\	.	.	8a/	.	(32ff#\KLL	.	.	.	.	.	.
.	.	.	.	.	16.aa\JJ)	.	.	.	.	.	.
8G\	.	.	8dd/	.	(32gg\KLL	.	.	.	.	.	.
.	.	.	.	.	16.bb\JJ)	.	.	.	.	.	.
8C\J	.	.	8a/J	.	(32cc\KLL	.	.	.	.	.	.
.	.	.	.	.	16.a\JJ)	.	.	.	.	.	.
=39	=39	=39	=39	=39	=39	=39	=39	=39	=39	=39	=39
8D/L	.	.	8d/L	.	4g/	.	2ryy	.	.	2ryy	2ryy
8D/	4	.	8d/	.	.	.	.	.	.	.	.
8DD/	3	.	8f#/	.	4a/	.	.	.	.	.	.
8DD/J	.	.	8f#/J	.	.	.	.	.	.	.	.
=40	=40	=40	=40	=40	=40	=40	=40	=40	=40	=40	=40
!LO:TX:a:t=P:problem:nadmiarowy takt pauzy w Sopranie I	!	!	!LO:TX:a:t=P:problem:nadmiarowy takt pauzy w Sopranie I	!	!LO:TX:a:t=P:problem:nadmiarowy takt pauzy w Sopranie I	!	!	!LO:TX:a:t=P:problem:nadmiarowy takt pauzy	!	!LO:TX:a:t=P:problem:nadmiarowy takt pauzy w Sopranie I	!LO:TX:a:t=P:problem:nadmiarowy takt pauzy w Sopranie I
2ryy	.	.	2ryy	.	2ryy	.	2ryy	2r	.	2ryy	2ryy
=41	=41	=41	=41	=41	=41	=41	=41	=41	=41	=41	=41
8G\L	.	.	4g/	.	4g/	.	2ryy	4r	.	2ryy	2ryy
8D\	.	.	.	.	.	.	.	.	.	.	.
8GG\J	.	.	4r	.	8r	.	.	8r	.	.	.
8r	.	.	.	.	8dd\	p	.	8dd\	gra-	.	.
=42	=42	=42	=42	=42	=42	=42	=42	=42	=42	=42	=42
!	!	!LO:DY:a	!	!LO:DY:a	!	!	!	!	!	!	!
8G\L	.	p	8b/L	p	8.gg\L	.	2ryy	8.gg\	.	2ryy	2ryy
8G\	.	.	8b/	.	.	.	.	.	.	.	.
.	.	.	.	.	(32ff#\LL	.	.	32ff#\	-ti-	.	.
.	.	.	.	.	32ee\JJJ)	.	.	32ee\	-as	.	.
8G\	.	.	8b/	.	8dd\L	.	.	8dd\	a-	.	.
8D\J	7	.	8a/J	.	8cc\J	.	.	16cc\	-gi-	.	.
.	.	.	.	.	.	.	.	16cc\	-mus	.	.
!LO:LB:g=original	!	!	!	!	!	!	!	!	!	!	!
=43	=43	=43	=43	=43	=43	=43	=43	=43	=43	=43	=43
8G\L	2	.	16a/LL	.	(16cc\LL	.	2ryy	16cc\LL	ti-	2ryy	2ryy
.	.	.	16g/J	.	16b\J)	.	.	16b\JJ	.	.	.
8G\	3	.	8g/J	.	8b\J	.	.	8b\	-bi.	.	.
8G\	.	.	8r	.	8r	.	.	8r	.	.	.
8G\J	.	.	8b/	.	8dd\	.	.	8dd\	gra-	.	.
=44	=44	=44	=44	=44	=44	=44	=44	=44	=44	=44	=44
8G\L	.	.	8b\L	.	8.gg\L	.	2ryy	8.gg\	.	2ryy	2ryy
8G\	.	.	8b\	.	.	.	.	.	.	.	.
.	.	.	.	.	(32ff#\LL	.	.	32ff#\	-ti-	.	.
.	.	.	.	.	32ee\JJJ)	.	.	32ee\	-as	.	.
8G\	4	.	8b\	.	8dd\L	.	.	8dd\	a-	.	.
8G\J	3	.	8cc\J	.	8ee\J	.	.	16ee\	-gi-	.	.
.	.	.	.	.	.	.	.	16ee\	-mus	.	.
!	!	!	!	!	!	!	!	!LO:LB:g=original	!	!	!
=45	=45	=45	=45	=45	=45	=45	=45	=45	=45	=45	=45
8G\L	4	.	16cc\LL	.	(16ee\LL	.	2ryy	16ee\LL	ti-	2ryy	2ryy
.	.	.	16b\J	.	16dd\J)	.	.	16dd\JJ	.	.	.
8G\	3	.	8b\J	.	8dd\J	.	.	8dd\	-bi	.	.
8G\	.	.	8r	.	8r	.	.	8r	.	.	.
8G\J	.	.	8b\	.	8dd\	.	.	16dd\	pro-	.	.
.	.	.	.	.	.	.	.	16dd\	-pter	.	.
=46	=46	=46	=46	=46	=46	=46	=46	=46	=46	=46	=46
8BB/L	.	.	16dd\LL	.	16ffn\LL	.	2ryy	8ffn\	ma-	2ryy	2ryy
.	.	.	16dd\	.	16ff\	.	.	.	.	.	.
8BB/	.	.	16dd\	.	16ff\	.	.	8ff\	-gnam	.	.
.	.	.	16dd\JJ	.	16ff\JJ	.	.	.	.	.	.
8BB/	.	.	16dd\LL	.	16ff\LL	.	.	8ff\	glo-	.	.
.	.	.	16dd\	.	16ff\	.	.	.	.	.	.
8BB/J	.	.	16dd\	.	16ff\	.	.	16ff\	-ri-	.	.
.	.	.	16dd\JJ	.	16ff\JJ	.	.	16ff\	-am	.	.
!	!	!	!	!	!LO:LB:g=original	!	!	!	!	!	!
=47	=47	=47	=47	=47	=47	=47	=47	=47	=47	=47	=47
!	!	!	!	!	!LO:SIC:s=16ffn:v	!	!	!	!	!	!
8C/L	2	.	16dd\LL	.	(16ff#\LL	.	2ryy	16ffn\LL	tu-	2ryy	2ryy
.	.	.	16cc\J	.	16ee\J)	.	.	16ee\JJ	.	.	.
8C/	3	.	8cc\J	.	8ee\J	.	.	8ee\	-am	.	.
8C/	.	.	8r	.	8r	.	.	8r	.	.	.
8C/J	.	.	8cc#X\	.	8ee\	.	.	16ee\	pro-	.	.
.	.	.	.	.	.	.	.	16ee\	-pter	.	.
!	!	!	!LO:LB:g=original	!	!	!	!	!	!	!	!
=48	=48	=48	=48	=48	=48	=48	=48	=48	=48	=48	=48
8AA/L	.	.	16ee\LL	.	16gg\LL	.	2ryy	8gg\	ma-	2ryy	2ryy
.	.	.	16ee\	.	16gg\	.	.	.	.	.	.
8AA/	.	.	16ee\	.	16gg\	.	.	8gg\	-gnam	.	.
.	.	.	16ee\JJ	.	16gg\JJ	.	.	.	.	.	.
8C#X/	.	.	16ee\LL	.	16gg\LL	.	.	8gg\	glo-	.	.
.	.	.	16ee\	.	16gg\	.	.	.	.	.	.
8C#/J	.	.	16ee\	.	16gg\	.	.	16gg\	-ri-	.	.
.	.	.	16ee\JJ	.	16gg\JJ	.	.	16gg\	-am	.	.
=49	=49	=49	=49	=49	=49	=49	=49	=49	=49	=49	=49
8D/L	2	.	16ee\LL	.	16gg\LL	.	2ryy	16gg\LL	tu-	2ryy	2ryy
.	.	.	16dd\J	.	16ff#X\J	.	.	16ff#X\JJ	.	.	.
8D/	3	.	8dd\J	.	8ff#\J	.	.	8ff#\	-am	.	.
8D/	.	.	8r	.	8r	.	.	8r	.	.	.
!	!	!	!	!	!	!	!	!LO:LB:g=original	!	!	!
8D/J	.	.	8dd\	.	8ff#\	.	.	16ff#\	pro-	.	.
.	.	.	.	.	.	.	.	16ff#\	-pter	.	.
=50	=50	=50	=50	=50	=50	=50	=50	=50	=50	=50	=50
8D/L	.	.	16dd\LL	.	16ff#\LL	.	2ryy	8ff#\	ma-	2ryy	2ryy
.	.	.	16dd\	.	16ff#\	.	.	.	.	.	.
8D/	.	.	16dd\	.	16ff#\	.	.	8ff#\	-gnam	.	.
.	.	.	16dd\JJ	.	16ff#\JJ	.	.	.	.	.	.
8Cn/	2	.	16dd\LL	.	16ff#\LL	.	.	8ff#\	glo-	.	.
.	.	.	16dd\	.	16ff#\	.	.	.	.	.	.
8C/J	.	.	16dd\	.	16ff#\	.	.	16ff#\	-ri-	.	.
.	.	.	16dd\JJ	.	16ff#\JJ	.	.	16ff#\	-am	.	.
=51	=51	=51	=51	=51	=51	=51	=51	=51	=51	=51	=51
8BB/L	.	.	8b/L	.	8gg\L	.	2ryy	8gg\	tu-	2ryy	2ryy
8GG/	.	.	8b/J	.	8dd\J	.	.	8dd\	-am	.	.
8GG/	.	.	8r	.	8r	.	.	8r	.	.	.
8GG/J	.	.	8B/	.	8d/	.	.	8dd\	Do-	.	.
=52	=52	=52	=52	=52	=52	=52	=52	=52	=52	=52	=52
8C/L	6	.	8c/L	.	8e/L	.	2ryy	16ee\LL	-mi-	2ryy	2ryy
.	.	.	.	.	.	.	.	16cc\	.	.	.
8C/	.	.	8c/	.	8e/	.	.	16b\	-ne	.	.
.	.	.	.	.	.	.	.	16a\JJ	.	.	.
8C/	.	.	8c/	.	8e/	.	.	16g#X/LL	De-	.	.
.	.	.	.	.	.	.	.	16a/JJ	.	.	.
8C/J	.	.	8c/J	.	8e/J	.	.	16g#/LL	-us	.	.
.	.	.	.	.	.	.	.	16a/JJ	.	.	.
=53	=53	=53	=53	=53	=53	=53	=53	=53	=53	=53	=53
8BB/L	6	.	8B/L	.	8d/L	.	2ryy	16dd\LL	Rex	2ryy	2ryy
.	.	.	.	.	.	.	.	16b\JJ	.	.	.
8BB/	.	.	8B/	.	8d/	.	.	16a\LL	coe-	.	.
.	.	.	.	.	.	.	.	16gn\JJ	.	.	.
8BB/	.	.	8B/	.	8d/	.	.	16f#/LL	-le-	.	.
.	.	.	.	.	.	.	.	16g/JJ	.	.	.
8BB/J	.	.	8B/J	.	8d/J	.	.	16f#/LL	-stis	.	.
.	.	.	.	.	.	.	.	16g/JJ	.	.	.
=54	=54	=54	=54	=54	=54	=54	=54	=54	=54	=54	=54
8C/L	6	.	8c/L	.	8e/L	.	2ryy	16ee\	Do-	2ryy	2ryy
.	.	.	.	.	.	.	.	16cc\	-mi-	.	.
!	!	!	!	!	!	!	!	!LO:LB:g=original	!	!	!
8C/	.	.	8c/	.	8e/	.	.	16b\	-ne	.	.
.	.	.	.	.	.	.	.	16a\	.	.	.
8C/	.	.	8c/	.	8e/	.	.	16g#X/LL	De-	.	.
.	.	.	.	.	.	.	.	16a/JJ	.	.	.
8C/J	.	.	8c/J	.	8e/J	.	.	16g#/LL	-us	.	.
.	.	.	.	.	.	.	.	16a/JJ	.	.	.
=55	=55	=55	=55	=55	=55	=55	=55	=55	=55	=55	=55
8BB/L	6	.	8B/L	.	8d/L	.	2ryy	16dd\LL	Rex	2ryy	2ryy
.	.	.	.	.	.	.	.	16b\JJ	.	.	.
8BB/	.	.	8B/	.	8d/	.	.	16a\LL	coe-	.	.
.	.	.	.	.	.	.	.	16gn\JJ	.	.	.
8BB/	.	.	8B/	.	8d/	.	.	16f#/LL	-le-	.	.
.	.	.	.	.	.	.	.	16g/JJ	.	.	.
8BB/J	.	.	8B/J	.	8d/J	.	.	16f#/LL	-stis	.	.
.	.	.	.	.	.	.	.	16g/JJ	.	.	.
=56	=56	=56	=56	=56	=56	=56	=56	=56	=56	=56	=56
8D\L	.	.	8d/L	.	(32f#/KLL	.	2ryy	8d/	De-	2ryy	2ryy
.	.	.	.	.	16.d/JJ)	.	.	.	.	.	.
8D\	.	.	8a/	.	(32a/KLL	.	.	8cc\	-us	.	.
.	.	.	.	.	16.cc/JJ)	.	.	.	.	.	.
8G\	.	.	8f#/	.	(32b/KLL	.	.	8b\	Pa-	.	.
.	.	.	.	.	16.g/JJ)	.	.	.	.	.	.
!	!	!	!	!	!LO:LB:g=original	!	!	!	!	!	!
8G\J	.	.	8b/J	.	(32dd\KLL	.	.	8gg\	-ter	.	.
.	.	.	.	.	16.gg\JJ)	.	.	.	.	.	.
!LO:LB:g=original	!	!	!	!	!	!	!	!	!	!	!
=57	=57	=57	=57	=57	=57	=57	=57	=57	=57	=57	=57
8D/L	4	.	8g/L	.	8b/L	.	2ryy	16b\	o-	2ryy	2ryy
.	.	.	.	.	.	.	.	16b\	-mni-	.	.
8D/	3	.	8f#/J	.	8a/J	.	.	16a\	-po-	.	.
.	.	.	.	.	.	.	.	16a\	-tens	.	.
8D/	.	.	8r	.	8r	.	.	8r	.	.	.
8D/J	.	.	8a/	.	8cc\	.	.	8cc\	Do-	.	.
=58	=58	=58	=58	=58	=58	=58	=58	=58	=58	=58	=58
8G\L	.	.	16g/LL	.	16b\LL	.	2ryy	8b\	.	2ryy	2ryy
.	.	.	16g/	.	16b\	.	.	.	.	.	.
8G\	4	.	16cc/	.	16ee\	.	.	16ee\	-mi-	.	.
.	.	.	16cc/JJ	.	16ee\JJ	.	.	16ee\	-ne	.	.
8G\	3	.	16b/LL	.	16dd\LL	.	.	8dd\	De-	.	.
.	.	.	16b/	.	16dd\	.	.	.	.	.	.
8D\J	7	.	16a/	.	16cc\	.	.	8cc\	-us	.	.
.	.	.	16a/JJ	.	16cc\JJ	.	.	.	.	.	.
!	!	!	!LO:LB:g=original	!	!	!	!	!LO:LB:g=original	!	!	!
=59	=59	=59	=59	=59	=59	=59	=59	=59	=59	=59	=59
!	!	!	!	!	!LO:TX:a:t=P:problem:belka zamazana, wygląda trochę jak szesnastkowa	!	!	!	!	!	!
8G\L	.	.	8g/L	.	8b\L	.	2ryy	16.b\LL	u-	2ryy	2ryy
.	.	.	.	.	.	.	.	32a\JJk	.	.	.
8G\	4	.	8cc/	.	8ee\	.	.	16.ee\LL	-ni-	.	.
.	.	.	.	.	.	.	.	32cc\JJk	.	.	.
8G\	3	.	8b/	.	8dd\	.	.	16.dd\LL	-ge-	.	.
.	.	.	.	.	.	.	.	32b\JJk	-ni-	.	.
8D\J	7	.	8a/J	.	8cc\J	.	.	16.cc\LL	-te	.	.
.	.	.	.	.	.	.	.	32a\JJk	.	.	.
=60	=60	=60	=60	=60	=60	=60	=60	=60	=60	=60	=60
8G\L	.	.	8g/L	.	8b/L	.	2ryy	4g/	Je-	2ryy	2ryy
8G\	6	.	8g/	.	8b/J	.	.	.	.	.	.
8C\	.	.	8e/	.	16gg\LL	.	.	16gg\LL	.	.	.
.	.	.	.	.	16ee\	.	.	16ee\	.	.	.
8C\J	.	.	8e/J	.	16cc\	.	.	16cc\	-su	.	.
.	.	.	.	.	16a\JJ	.	.	16a\JJ	.	.	.
=61	=61	=61	=61	=61	=61	=61	=61	=61	=61	=61	=61
8D/L	4	.	8g/L	.	8b/L	.	2ryy	4g/	.	2ryy	2ryy
8D/	.	.	8g/	.	8b/	.	.	.	.	.	.
8D/	3	.	8f#/	.	8a/	.	.	4a/	Chri-	.	.
8D/J	.	.	8f#/J	.	8a/J	.	.	.	.	.	.
=62	=62	=62	=62	=62	=62	=62	=62	=62	=62	=62	=62
!LO:TX:a:t=P:problem:mixed beam	!	!	!	!	!	!	!	!	!	!	!
8G\L	.	.	4g/	.	4g/	.	2ryy	4g/	-ste	2ryy	2ryy
16GG/L	.	.	.	.	.	.	.	.	.	.	.
16AA/JJ	.	.	.	.	.	.	.	.	.	.	.
8BB/L	.	.	8r	.	8r	.	.	4r	.	.	.
!	!	!	!	!LO:DY:t=For	!	!LO:DY:t=For	!	!	!	!	!
8D/J	7	.	8a/	f	8cc\	f	.	.	.	.	.
=63	=63	=63	=63	=63	=63	=63	=63	=63	=63	=63	=63
!	!	!LO:DY:t=For	!	!	!	!	!	!LO:TX:a:t=4	!	!	!
!	!	!	!	!	!	!	!	!LO:N:vis=00	!	!	!
8G\L	.	f	8g/L	.	(32b/KLL	.	2ryy	0r	.	2ryy	2ryy
.	.	.	.	.	16.g/JJ)	.	.	.	.	.	.
8G\	4	.	8cc/	.	(32gg\KLL	.	.	.	.	.	.
.	.	.	.	.	16.ee\JJ)	.	.	.	.	.	.
8G\	3	.	8b/	.	(32dd\KLL	.	.	.	.	.	.
.	.	.	.	.	16.b\JJ)	.	.	.	.	.	.
8D\J	7	.	8a/J	.	(32cc\KLL	.	.	.	.	.	.
.	.	.	.	.	16.a\JJ)	.	.	.	.	.	.
=64	=64	=64	=64	=64	=64	=64	=64	=64	=64	=64	=64
8G\L	.	.	8g/L	.	(32b/KLL	.	2ryy	.	.	2ryy	2ryy
.	.	.	.	.	16.g/JJ)	.	.	.	.	.	.
8G\	4	.	8cc/	.	(32gg\KLL	.	.	.	.	.	.
.	.	.	.	.	16.ee\JJ)	.	.	.	.	.	.
8G\	3	.	8b/	.	(32dd\KLL	.	.	.	.	.	.
.	.	.	.	.	16.b\JJ)	.	.	.	.	.	.
8D\J	7	.	8a/J	.	(32cc\KLL	.	.	.	.	.	.
.	.	.	.	.	16.a\JJ)	.	.	.	.	.	.
!	!	!	!	!	!LO:PB:g=original	!	!	!	!	!	!
=65	=65	=65	=65	=65	=65	=65	=65	=65	=65	=65	=65
8G\L	.	.	8g/L	.	4b/	.	2ryy	.	.	2ryy	2ryy
8G\	6	.	8g/	.	.	.	.	.	.	.	.
8C\	.	.	8e/	.	16ee\LL	.	.	.	.	.	.
.	.	.	.	.	16cc\	.	.	.	.	.	.
8C\J	.	.	8e/J	.	16b\	.	.	.	.	.	.
.	.	.	.	.	16a\JJ	.	.	.	.	.	.
=66	=66	=66	=66	=66	=66	=66	=66	=66	=66	=66	=66
8D/L	4	.	8d/L	.	4g/	.	2ryy	.	.	2ryy	2ryy
8D/	3	.	8d/	.	.	.	.	.	.	.	.
8D/	.	.	8f#/	.	4aT/	.	.	.	.	.	.
8D/J	.	.	8f#/J	.	.	.	.	.	.	.	.
=67	=67	=67	=67	=67	=67	=67	=67	=67	=67	=67	=67
!LO:TX:a:t=P:problem:zbędna powtórka w vl II	!	!	!LO:TX:a:t=P:problem:zbędna powtórka t. 66	!	!LO:TX:a:t=P:problem:zbędna powtórka w vl II	!	!	!LO:TX:a:t=P:problem:zbędna powtórka w vl II	!	!LO:TX:a:t=P:problem:zbędna powtórka w vl II	!LO:TX:a:t=P:problem:zbędna powtórka w vl II
2ryy	.	.	8d/L	.	2ryy	.	2ryy	2ryy	.	2ryy	2ryy
.	.	.	8d/	.	.	.	.	.	.	.	.
.	.	.	8f#/	.	.	.	.	.	.	.	.
.	.	.	8f#/J	.	.	.	.	.	.	.	.
=68	=68	=68	=68	=68	=68	=68	=68	=68	=68	=68	=68
8G\L	.	.	4g/	.	4g/	.	2ryy	4r	.	2ryy	2ryy
8D\	.	.	.	.	.	.	.	.	.	.	.
8GG\J	.	.	8r	.	8r	.	.	8r	.	.	.
!	!	!	!	!	!	!LO:DY:t=pia	!	!	!	!	!
8r	.	.	8b/	.	8dd\	p	.	8dd\	Do-	.	.
=69	=69	=69	=69	=69	=69	=69	=69	=69	=69	=69	=69
!	!	!LO:DY:a	!	!	!	!	!	!	!	!	!
8G\L	.	p	8b/L	.	8.gg\L	.	2ryy	8.gg\L	.	2ryy	2ryy
8G\	.	.	8b/	.	.	.	.	.	.	.	.
.	.	.	.	.	(32ff#\LL	.	.	32ff#\LL	.	.	.
.	.	.	.	.	32ee\JJJ)	.	.	32ee\JJJ	.	.	.
8G\	.	.	8b/	.	8dd\L	.	.	8dd\	-mi-	.	.
8D\J	7	.	8a/J	.	8cc\J	.	.	8cc\	-ne	.	.
=70	=70	=70	=70	=70	=70	=70	=70	=70	=70	=70	=70
8G\L	2	.	8a/L	.	8cc\L	.	2ryy	8cc\	De-	2ryy	2ryy
8G\	3	.	8g/J	.	8b\J	.	.	8b\	-us	.	.
8G\	.	.	8r	.	8r	.	.	8r	.	.	.
8G\J	.	.	8b/	.	8dd\	.	.	8dd\	a-	.	.
!	!	!	!	!	!	!	!	!LO:LB:g=original	!	!	!
=71	=71	=71	=71	=71	=71	=71	=71	=71	=71	=71	=71
8G\L	.	.	8b\L	.	8.gg\L	.	2ryy	8.gg\L	.	2ryy	2ryy
8G\	.	.	8b\	.	.	.	.	.	.	.	.
.	.	.	.	.	(32ff#\LL	.	.	32ff#\LL	.	.	.
.	.	.	.	.	32ee\JJJ)	.	.	32ee\JJJ	.	.	.
8G\	.	.	8b\	.	8dd\L	.	.	8dd\	.	.	.
8G\J	4_	.	8cc\J	.	8ee\J	.	.	8ee\	-gnus	.	.
!	!	!	!LO:LB:g=original	!	!	!	!	!	!	!	!
=72	=72	=72	=72	=72	=72	=72	=72	=72	=72	=72	=72
8G\L	.	.	8cc\L	.	8ee\L	.	2ryy	8ee\	De-	2ryy	2ryy
8G\	.	.	8b\J	.	8dd\J	.	.	8dd\	-i	.	.
8G\	3	.	8r	.	8r	.	.	8r	.	.	.
8G\J	.	.	8dd\	.	8ffn\	.	.	8ffn\	Fi-	.	.
!LO:LB:g=original	!	!	!	!	!	!	!	!	!	!	!
=73	=73	=73	=73	=73	=73	=73	=73	=73	=73	=73	=73
*	*	*	*	*	*	*	*	*2\right	*	*	*
!	!	!	!	!	!LO:SIC:s=16ffn:v	!	!	!LO:SIC:s=2ffn:v	!	!	!
8G#X\L	.	.	16dd\LL	.	16ff#\LL	.	2ryy	2ff#\	.	2ryy	2ryy
!	!	!	!	!	!LO:SIC:s=16ffn:v	!	!	!	!	!	!
.	.	.	16dd\	.	16ff#\	.	.	.	.	.	.
!	!	!	!	!	!LO:SIC:s=16ffn:v	!	!	!	!	!	!
8G#\	.	.	16dd\	.	16ff#\	.	.	.	.	.	.
!	!	!	!	!	!LO:SIC:s=16ffn:v	!	!	!	!	!	!
.	.	.	16dd\JJ	.	16ff#\JJ	.	.	.	.	.	.
!	!	!	!	!	!LO:SIC:s=16ffn:v	!	!	!	!	!	!
8G#\	.	.	16dd\LL	.	16ff#\LL	.	.	.	.	.	.
!	!	!	!	!	!LO:SIC:s=16ffn:v	!	!	!	!	!	!
.	.	.	16dd\	.	16ff#\	.	.	.	.	.	.
!	!	!	!	!	!LO:SIC:s=16ffn:v	!	!	!	!	!	!
8G#\J	.	.	16dd\	.	16ff#\	.	.	.	.	.	.
!	!	!	!	!	!LO:SIC:s=16ffn:v	!	!	!	!	!	!
.	.	.	16dd\JJ	.	16ff#\JJ	.	.	.	.	.	.
=74	=74	=74	=74	=74	=74	=74	=74	=74	=74	=74	=74
!LO:SIC:s=8G#:v	!	!	!	!	!	!	!	!LO:SIC:s=8.ffn:v	!	!	!
8G\L	.	.	8.dd\L	.	8.ffn\L	.	2ryy	8.ff#\L	.	2ryy	2ryy
!LO:SIC:s=8G#:v	!	!	!	!	!	!	!	!	!	!	!
8G\	.	.	.	.	.	.	.	.	.	.	.
.	.	.	16cc\K	.	16ee\K	.	.	16ee\Jk	.	.	.
!LO:SIC:s=8G#:v	!	!	!	!	!	!	!	!	!	!	!
8G\	.	.	8.cc\	.	8.ee\	.	.	8.ee\	-li-	.	.
!LO:SIC:s=8G#:v	!	!	!	!	!	!	!	!	!	!	!
8G\J	.	.	.	.	.	.	.	.	.	.	.
.	.	.	16b\Jk	.	16dd\Jk	.	.	16dd\	-us	.	.
=75	=75	=75	=75	=75	=75	=75	=75	=75	=75	=75	=75
!LO:TX:a:t=P:problem:mixed beam	!	!	!	!	!	!	!	!	!	!	!
8A\L	2	.	16b/LL	.	(16dd\LL	.	2ryy	16dd\LL	Pa-	2ryy	2ryy
.	.	.	16a/J	.	16cc\J)	.	.	16cc\JJ	.	.	.
8AA/	3	.	8a/J	.	8cc\J	.	.	8cc\	-tris	.	.
8AA/	.	.	8r	.	8r	.	.	8r	.	.	.
8AA/J	.	.	8cc\	.	8ee\	.	.	8ee\	Fi-	.	.
!	!	!	!	!	!LO:LB:g=original	!	!	!	!	!	!
=76	=76	=76	=76	=76	=76	=76	=76	=76	=76	=76	=76
8D\L	.	.	16cc\LL	.	16ee\LL	.	2ryy	2ee\	.	2ryy	2ryy
.	.	.	16cc\	.	16ee\	.	.	.	.	.	.
8F#\	.	.	16cc\	.	16ee\	.	.	.	.	.	.
.	.	.	16cc\JJ	.	16ee\JJ	.	.	.	.	.	.
8F#\	.	.	16cc\LL	.	16ee\LL	.	.	.	.	.	.
.	.	.	16cc\	.	16ee\	.	.	.	.	.	.
8F#\J	.	.	16cc\	.	16ee\	.	.	.	.	.	.
.	.	.	16cc\JJ	.	16ee\JJ	.	.	.	.	.	.
=77	=77	=77	=77	=77	=77	=77	=77	=77	=77	=77	=77
8F#\L	.	.	8.cc\L	.	8.ee\L	.	2ryy	8.ee\L	.	2ryy	2ryy
8F#\	.	.	.	.	.	.	.	.	.	.	.
.	.	.	16b\K	.	16dd\K	.	.	16dd\Jk	.	.	.
8F#\	.	.	8.b\	.	8.dd\	.	.	8.dd\L	-li-	.	.
8F#\J	.	.	.	.	.	.	.	.	.	.	.
.	.	.	16b\Jk	.	16cc\Jk	.	.	16cc\Jk	-us	.	.
=78	=78	=78	=78	=78	=78	=78	=78	=78	=78	=78	=78
!LO:TX:a:t=P:problem:mixed beam	!	!	!	!	!	!	!	!	!	!	!
8Gn\L	2	.	16a/LL	.	(16cc\LL	.	2ryy	16cc\LL	Pa-	2ryy	2ryy
.	.	.	16g/J	.	16b\J)	.	.	16b\JJ	.	.	.
8GG/	3	.	8g/J	.	8b\J	.	.	8b\	-tris	.	.
8GG/	.	.	8r	.	8r	.	.	8r	.	.	.
!	!	!	!	!	!	!	!	!LO:LB:g=original	!	!	!
8GG/J	.	.	8b/	.	8dd\	.	.	8dd\	Pa-	.	.
=79	=79	=79	=79	=79	=79	=79	=79	=79	=79	=79	=79
8G\L	4	.	8cc\L	.	8ee\L	.	2ryy	16ee\LL	.	2ryy	2ryy
.	.	.	.	.	.	.	.	16gg\	.	.	.
8G\	.	.	8cc\	.	8ee\	.	.	16ee\	.	.	.
.	.	.	.	.	.	.	.	16cc\JJ	.	.	.
8G\	3	.	8b\	.	8dd\	.	.	16dd\LL	.	.	.
.	.	.	.	.	.	.	.	16gg\	.	.	.
8G\J	.	.	8b\J	.	8dd\J	.	.	16dd\	.	.	.
.	.	.	.	.	.	.	.	16b\JJ	.	.	.
=80	=80	=80	=80	=80	=80	=80	=80	=80	=80	=80	=80
8D\L	.	.	8a/L	.	8cc\L	.	2ryy	16cc\LL	.	2ryy	2ryy
.	.	.	.	.	.	.	.	16a\	.	.	.
8G\	.	.	8b/J	.	8dd\J	.	.	16dd\	.	.	.
.	.	.	.	.	.	.	.	16gg\JJ	.	.	.
8D\	.	.	8cc/L	.	8ff#\L	.	.	16ff#\LL	.	.	.
.	.	.	.	.	.	.	.	16aa\	.	.	.
8D\J	.	.	16b/L	.	16dd\L	.	.	16ff#\	.	.	.
.	.	.	16g/JJ	.	16b\JJ	.	.	16b\JJ	.	.	.
=81	=81	=81	=81	=81	=81	=81	=81	=81	=81	=81	=81
8D/L	4	.	16g/LL	.	16b/LL	.	2ryy	16b\LL	.	2ryy	2ryy
.	.	.	16f#/J	.	16a/J	.	.	16a\JJ	.	.	.
8D/	3	.	8f#/J	.	8a/J	.	.	8a\	-tris	.	.
8D/	.	.	8r	.	8r	.	.	8r	.	.	.
8D/J	.	.	8b/	.	8dd\	.	.	8dd\	Pa-	.	.
!	!	!	!LO:LB:g=original	!	!	!	!	!	!	!	!
=82	=82	=82	=82	=82	=82	=82	=82	=82	=82	=82	=82
!	!	!	!LO:TX:a:t=P:problem:belka zamazana, wygląda jak szesnastkowa	!	!	!	!	!	!	!	!
8G\L	4	.	8cc\L	.	8ee\L	.	2ryy	16ee\LL	.	2ryy	2ryy
.	.	.	.	.	.	.	.	16gg\	.	.	.
8G\	.	.	8cc\	.	8ee\	.	.	16ee\	.	.	.
.	.	.	.	.	.	.	.	16cc\JJ	.	.	.
8G\	3	.	8b\	.	8dd\	.	.	16dd\LL	.	.	.
.	.	.	.	.	.	.	.	16gg\	.	.	.
8G\J	.	.	8b\J	.	8dd\J	.	.	16dd\	.	.	.
.	.	.	.	.	.	.	.	16b\JJ	.	.	.
=83	=83	=83	=83	=83	=83	=83	=83	=83	=83	=83	=83
8D\L	.	.	8a/L	.	8cc\L	.	2ryy	16cc\LL	.	2ryy	2ryy
.	.	.	.	.	.	.	.	16a\	.	.	.
8G\	.	.	8b/J	.	8dd\J	.	.	16dd\	.	.	.
.	.	.	.	.	.	.	.	16gg\JJ	.	.	.
8D\	.	.	16cc/LL	.	8ff#\L	.	.	16ff#\LL	.	.	.
.	.	.	16b/J	.	.	.	.	16aa\	.	.	.
8D\J	.	.	8g/J	.	16dd\L	.	.	16gg\	.	.	.
.	.	.	.	.	16b\JJ	.	.	16b\JJ	.	.	.
=84	=84	=84	=84	=84	=84	=84	=84	=84	=84	=84	=84
8D/L	4	.	16g/LL	.	16b/LL	.	2ryy	16b\LL	.	2ryy	2ryy
.	.	.	16f#/J	.	16a/J	.	.	16a\JJ	.	.	.
8D/	.	.	8f#/J	.	8a/J	.	.	8a\	-tris	.	.
8D/	3	.	8r	.	8r	.	.	8r	.	.	.
8D/J	.	.	8a/	.	8cc\	.	.	8cc\	Pa-	.	.
!	!	!	!	!	!	!	!	!LO:LB:g=original	!	!	!
=85	=85	=85	=85	=85	=85	=85	=85	=85	=85	=85	=85
8G\L	.	.	8g/L	.	(32b/KLL	.	2ryy	8b\L	.	2ryy	2ryy
.	.	.	.	.	16.g/JJ)	.	.	.	.	.	.
8G\	4	.	8cc/	.	(32gg\KLL	.	.	8gg\	.	.	.
.	.	.	.	.	16.ee\JJ)	.	.	.	.	.	.
!	!	!	!	!	!LO:LB:g=original	!	!	!	!	!	!
8G\	3	.	8b/	.	(32dd\KLL	.	.	8dd\	.	.	.
.	.	.	.	.	16.b\JJ)	.	.	.	.	.	.
8D\J	7	.	8a/J	.	(32cc\KLL	.	.	8cc\J	.	.	.
.	.	.	.	.	16.a\JJ)	.	.	.	.	.	.
=86	=86	=86	=86	=86	=86	=86	=86	=86	=86	=86	=86
8G\L	.	.	8g/L	.	(32b/KLL	.	2ryy	8b\L	.	2ryy	2ryy
.	.	.	.	.	16.g/JJ)	.	.	.	.	.	.
8G\	4	.	8cc/	.	(32gg\KLL	.	.	8gg\	.	.	.
.	.	.	.	.	16.ee\JJ)	.	.	.	.	.	.
8G\	3	.	8b/	.	(32dd\KLL	.	.	8dd\	.	.	.
.	.	.	.	.	16.b\JJ)	.	.	.	.	.	.
8D\J	7	.	8a/J	.	(32cc\KLL	.	.	8cc\J	.	.	.
.	.	.	.	.	16.a\JJ)	.	.	.	.	.	.
!LO:LB:g=original	!	!	!	!	!	!	!	!	!	!	!
=87	=87	=87	=87	=87	=87	=87	=87	=87	=87	=87	=87
8G\L	.	.	8g/L	.	8b/L	.	2ryy	4b\	.	2ryy	2ryy
8G\	.	.	8g/	.	8b/J	.	.	.	.	.	.
8C\	6	.	8e/	.	16ee\LL	.	.	16ee\LL	.	.	.
.	.	.	.	.	16cc\	.	.	16cc\	.	.	.
8C\J	.	.	8e/J	.	16b\	.	.	16b\	.	.	.
.	.	.	.	.	16a\JJ	.	.	16a\JJ	.	.	.
=88	=88	=88	=88	=88	=88	=88	=88	=88	=88	=88	=88
8D/L	4	.	16g/LL	.	16b/LL	.	2ryy	4d/	.	2ryy	2ryy
.	.	.	16g/	.	16b/	.	.	.	.	.	.
8D/	.	.	16g/	.	16b/	.	.	.	.	.	.
.	.	.	16g/JJ	.	16b/JJ	.	.	.	.	.	.
8D/	3	.	16g/LL	.	16a/LL	.	.	4a/	.	.	.
.	.	.	16f#/	.	16a/	.	.	.	.	.	.
8D/J	.	.	16f#/	.	16a/	.	.	.	.	.	.
.	.	.	16f#/JJ	.	16a/JJ	.	.	.	.	.	.
=89	=89	=89	=89	=89	=89	=89	=89	=89	=89	=89	=89
!LO:TX:a:t=P:problem:mixed beam	!	!	!	!	!	!	!	!	!	!	!
8G\L	.	.	4g/	.	4g/	.	2ryy	4g/	-tris	2ryy	2ryy
16GG/L	.	.	.	.	.	.	.	.	.	.	.
16AA/JJ	.	.	.	.	.	.	.	.	.	.	.
!	!	!LO:DY:t=For	!	!	!	!	!	!	!	!	!
8BB/L	.	f	8r	.	8r	.	.	4r	.	.	.
!	!	!	!	!	!	!LO:DY:t=For	!	!	!	!	!
8GG/J	.	.	8b/	.	8dd\	f	.	.	.	.	.
=90	=90	=90	=90	=90	=90	=90	=90	=90	=90	=90	=90
!	!	!	!	!LO:DY:t=For	!	!	!	!LO:TX:a:t=9	!	!	!
!	!	!	!	!	!	!	!	!LO:N:vis=00	!	!	!
8G\L	4	.	8cc\L	f	(32ee\KLL	.	2ryy	0r	.	2ryy	2ryy
.	.	.	.	.	16.gg\JJ)	.	.	.	.	.	.
8G\	.	.	8cc\	.	(32ccc\KLL	.	.	.	.	.	.
.	.	.	.	.	16.aa\JJ)	.	.	.	.	.	.
8G\	.	.	8cc\	.	(32gg\KLL	.	.	.	.	.	.
.	.	.	.	.	16.ee\JJ)	.	.	.	.	.	.
8G\J	.	.	8cc\J	.	(32ee\KLL	.	.	.	.	.	.
.	.	.	.	.	16.cc\JJ)	.	.	.	.	.	.
=91	=91	=91	=91	=91	=91	=91	=91	=91	=91	=91	=91
8G\L	3	.	8b\L	.	(32b\KLL	.	2ryy	.	.	2ryy	2ryy
.	.	.	.	.	16.dd\JJ)	.	.	.	.	.	.
8G\	.	.	8b\	.	32gg\KLL	.	.	.	.	.	.
.	.	.	.	.	16.bb\JJ	.	.	.	.	.	.
8G\	.	.	8b\	.	(32gg\KLL	.	.	.	.	.	.
.	.	.	.	.	16.dd\JJ)	.	.	.	.	.	.
8G\J	.	.	8b\J	.	(32dd\KLL	.	.	.	.	.	.
.	.	.	.	.	16.b\JJ)	.	.	.	.	.	.
!	!	!	!	!	!LO:LB:g=original	!	!	!	!	!	!
=92	=92	=92	=92	=92	=92	=92	=92	=92	=92	=92	=92
8D/L	7	.	8f#/L	.	(32cc\KLL	.	2ryy	.	.	2ryy	2ryy
.	.	.	.	.	16.a\JJ)	.	.	.	.	.	.
8D/	.	.	8a/J	.	(32ff#\KLL	.	.	.	.	.	.
.	.	.	.	.	16.aa\JJ)	.	.	.	.	.	.
8D/	.	.	8b/L	.	(32gg\KLL	.	.	.	.	.	.
.	.	.	.	.	16.dd\JJ)	.	.	.	.	.	.
!	!	!	!	!	!LO:N:vis=16	!	!	!	!	!	!
8D/J	.	.	16a/L	.	(32ff#\LLL	.	.	.	.	.	.
!	!	!	!	!	!LO:N:vis=16	!	!	!	!	!	!
.	.	.	.	.	32aa\	.	.	.	.	.	.
!	!	!	!	!	!LO:N:vis=16	!	!	!	!	!	!
.	.	.	16b/JJ	.	32gg\	.	.	.	.	.	.
!	!	!	!	!	!LO:N:vis=16	!	!	!	!	!	!
.	.	.	.	.	32b\JJJ)	.	.	.	.	.	.
=93	=93	=93	=93	=93	=93	=93	=93	=93	=93	=93	=93
8D/L	4	.	8g/L	.	8b/L	.	2ryy	.	.	2ryy	2ryy
8D/	5	.	8f#/J	.	8a/J	.	.	.	.	.	.
8D/	.	.	8r	.	8r	.	.	.	.	.	.
8D/J	7	.	8a/	.	8cc\	.	.	.	.	.	.
!	!	!	!LO:LB:g=original	!	!	!	!	!	!	!	!
=94	=94	=94	=94	=94	=94	=94	=94	=94	=94	=94	=94
!	!	!	!	!	!	!	!	!LO:N:vis=00	!	!	!
8G\L	.	.	8g/L	.	(32b/KLL	.	2ryy	0r	.	2ryy	2ryy
.	.	.	.	.	16.g/JJ)	.	.	.	.	.	.
8G\	4	.	8cc/	.	(32gg\KLL	.	.	.	.	.	.
.	.	.	.	.	16.ee\JJ)	.	.	.	.	.	.
8G\	5	.	8b/	.	(32dd\KLL	.	.	.	.	.	.
.	.	.	.	.	16.b\JJ)	.	.	.	.	.	.
8D\J	7	.	8a/J	.	(32cc\KLL	.	.	.	.	.	.
.	.	.	.	.	16.a\JJ)	.	.	.	.	.	.
=95	=95	=95	=95	=95	=95	=95	=95	=95	=95	=95	=95
8G\L	.	.	8g/L	.	(32b/KLL	.	2ryy	.	.	2ryy	2ryy
.	.	.	.	.	16.g/JJ)	.	.	.	.	.	.
8G\	4	.	8cc/	.	(32gg\KLL	.	.	.	.	.	.
.	.	.	.	.	16.ee\JJ)	.	.	.	.	.	.
8G\	5	.	8b/	.	(32dd\KLL	.	.	.	.	.	.
.	.	.	.	.	16.b\JJ)	.	.	.	.	.	.
8D\J	7	.	8a/J	.	(32cc\KLL	.	.	.	.	.	.
.	.	.	.	.	16.a\JJ)	.	.	.	.	.	.
=96	=96	=96	=96	=96	=96	=96	=96	=96	=96	=96	=96
8G\L	.	.	8g/L	.	4b/	.	2ryy	.	.	2ryy	2ryy
8G\	.	.	8g/	.	.	.	.	.	.	.	.
8C\	6	.	8e/	.	16gg\LL	.	.	.	.	.	.
.	.	.	.	.	16ee\	.	.	.	.	.	.
8C\J	.	.	8e/J	.	16cc\	.	.	.	.	.	.
.	.	.	.	.	16a\JJ	.	.	.	.	.	.
=97	=97	=97	=97	=97	=97	=97	=97	=97	=97	=97	=97
8D/L	4	.	8d/L	.	4g/	.	2ryy	.	.	2ryy	2ryy
8D/	.	.	8d/	.	.	.	.	.	.	.	.
8DD/	3	.	8f#/	.	4aT/	.	.	.	.	.	.
8DD/J	.	.	8f#/J	.	.	.	.	.	.	.	.
=98	=98	=98	=98	=98	=98	=98	=98	=98	=98	=98	=98
4GG/	.	.	4g/	.	4g/	.	2ryy	2r	.	2ryy	2ryy
!LO:TX:a:t=P:problem:kreska taktowa jak podwójna repetycja	!	!	!	!	!LO:TX:a:t=P:problem:kreska taktowa jak podwójna repetycja	!	!	!	!	!	!
4r	.	.	4r	.	4r	.	.	.	.	.	.
==	==	==	==	==	==	==	==	==	==	==	==
*-	*-	*-	*-	*-	*-	*-	*-	*-	*-	*-	*-
!!!system-decoration: [g1][g2][g3]s7
!!!RDF**kern: > = above
!!!RDF**kern: < = below
!!!RDF**dynam: p = "pia:"
!!!RDF**dynam: f = "For:"
!!!ENC: Marta Lawrence
!!!END: 2020-09-21
!!!ENC: Krzysztof Stępień
!!!END: 2020-04-15
